packages/dnb-ui-lib/assets/icons/graph_decrease.svg

<svg width="16" height="16" viewBox="0 0 16 16" fill="none" xmlns="http://www.w3.org/2000/svg">
<path d="M15.25 15H14.25M0.75 15H1.75M3.25213 1.1688L13.25 5.70916M13.25 5.70916L12.5071 3.72987M13.25 5.70916L11.2707 6.45209M1.75 15V7.06667C1.75 6.94291 1.79917 6.82421 1.88668 6.73669C1.9742 6.64917 2.0929 6.60001 2.21667 6.60001H3.78333C3.9071 6.60001 4.0258 6.64917 4.11332 6.73669C4.20083 6.82421 4.25 6.94291 4.25 7.06667V15M1.75 15H4.25M4.25 15H6.75M6.75 15V8.93334C6.75 8.80957 6.79917 8.69087 6.88668 8.60336C6.9742 8.51584 7.0929 8.46667 7.21667 8.46667H8.78333C8.9071 8.46667 9.0258 8.51584 9.11332 8.60336C9.20083 8.69087 9.25 8.80957 9.25 8.93334V15M6.75 15H9.25M9.25 15H11.75M11.75 15V11.7333C11.75 11.6096 11.7992 11.4909 11.8867 11.4034C11.9742 11.3158 12.0929 11.2667 12.2167 11.2667H13.7833C13.9071 11.2667 14.0258 11.3158 14.1133 11.4034C14.2008 11.4909 14.25 11.6096 14.25 11.7333V15M11.75 15H14.25" stroke="black" stroke-width="1.5" stroke-linecap="round" stroke-linejoin="round"/>
</svg>

<svg width="16" height="16" viewBox="0 0 16 16" fill="none" xmlns="http://www.w3.org/2000/svg"><path d="M15.25 15h-1M.75 15h1M3.252 1.169l9.998 4.54m0 0l-.743-1.98m.743 1.98l-1.98.743M1.75 15V7.067a.467.467 0 01.467-.467h1.566a.467.467 0 01.467.467V15m-2.5 0h2.5m0 0h2.5m0 0V8.933a.467.467 0 01.467-.466h1.566a.467.467 0 01.467.466V15m-2.5 0h2.5m0 0h2.5m0 0v-3.267a.467.467 0 01.467-.466h1.566a.466.466 0 01.467.466V15m-2.5 0h2.5" stroke="#000" stroke-width="1.5" stroke-linecap="round" stroke-linejoin="round"/></svg>
